X: 3101
T: Hon.ble Mr Ramsay Maule's Favourite
C: by Nath:Gow.
%R: air, jig
B: Niel Gow & Sons "A Third Collection of Strathspey Reels, etc." v.3 p.10 #1
Z: 2022 John Chambers <jc:trillian.mit.edu>
M: 6/8
L: 1/8
Q: "Slow"
K: Em
% - - - - - - - - - -
% Voice 1 reformatted for 3 8-bar lines.
V: 1 staves=2
F |\
TG>AB E2E | (E<B,)E TE2F | TG>AB (cA).F | (BG).E (AF).D || TG>AB E2E | E<B,E E>FG/A/ | Beg (fb).^d | Te3 E2 :|
f |\
Tg>ab e2e | Tg2f eBe | e>fg/a/ bge | bge afd || Tg>ab e2e | Tg2f eBA | TG>FE B2T^d | e2E E2f ||
Tg>ab e2e | {f}g2.f (eB).G | (EG).B (GB).e | (eB).G AFD || TG>AB E2TE | (cA)G (FA).c | TB>AG AGF | GEE E2 |]
% - - - - - - - - - -
% Voice 2 preserves the staff layout in the book.
V: 2 clef=bass middle=d
z | E3 e3 | E3 e3 | e3 f3 | g3 d3 || e3 E3 | e3 E3 | e3 b2.B |
e2B E2 :| z | e3 e3 | b2a g3- | g2f e3 | e3 d3 || e3 e3 | B2a g2f | e3 b2B | e2B E3 ||
e3 E3 | [b2e3]a [g3e3] | e3 e3 | g2b d'2d || e3 e3 | a3- a2f | g2g abB | e2B E2 |]


